X: 1
T: the Devil's Dream
P: piffero primo a0439
O: unk
%R: reel
S: http://ancients.sudburymuster.org/mus/sng/pdf/devilsdC0.pdf
Z: 2019 John Chambers <jc:trillian.mit.edu>
M: 2/4
L: 1/16
K: A
e2 |\
agae agae | agae fedc | dfBf dfBf | dfBf agfe |\
agae agae |
            agae fedc | dfed cABA | D2A2 A2 :: e2 |\
ceAe ceAe | ceAe fedc |
                        dfBf dfBf | dfBf agfe |\
ceAe ceAe | ceAe fedc | dfed cABA | D2A2 A2 :|
